X:1
T:George White's Favourite
R:reel
M:4/4
L:1/8
K:G
eB~B2 eBdB|AGAB GEDE|GB~B2 eB~B2|eBdB A2Bd|
eB~B2 eBdB|AGAB GEDE|GABd gedB|1 AGAB G2Bd:|2 AGAB G4|]
gede gaba|gfga gedB|dega bgag|eaag a2ga|
bgeg d2de|gede gaba|~g3d egdB|1 AGAB G4:|2 AGAB G2Bd|]
</abc>
